X:366
T: Barley Brae
N: O'Farrell's Pocket Companion v.4 (Sky ed. p.158)
M: C
L: 1/8
Q: 270
R: hornpipe
K: D
F>G| A2 d>B {B}A3 {G}F| B2 e>d {d}c2 BA|
d3c BAGF| F2E2E2 F>G|  A2 d>B {B}A3 {G}F| B2ed c2A2|
d3B A3G| F2D2D2 :|
de| f3d e3c| dcBA d3F| G3B BAGF| F2E2E2 d>e|
f3d e3c| dcBA d3F| G3B A3G| F2D2D2 :|
